contracts-metadata/images/mooniswap.svg

<svg viewBox="0 0 277 269" fill="none" xmlns="http://www.w3.org/2000/svg">
	<path d="M151.93 147.732C150.251 144.375 146.894 140.178 143.536 136.82C142.697 137.66 141.857 140.178 141.857 141.017C141.018 144.375 142.697 144.375 146.054 145.214C147.733 145.214 149.412 146.054 151.93 147.732Z" fill="url(#paint0_linear)"/>
	<path fill-rule="evenodd" clip-rule="evenodd" d="M152.77 0.839394C99.888 5.87576 57.0789 46.1667 48.685 98.2091C52.0426 98.2091 54.5607 97.3697 55.4001 97.3697C55.4001 92.3333 57.0789 83.1 62.9547 77.2242C79.7426 39.4515 116.676 13.4303 160.324 13.4303C219.082 13.4303 266.927 61.2757 266.927 120.873C266.927 165.361 240.067 203.133 202.294 219.921C230.833 202.294 250.14 169.558 250.14 132.624C250.14 76.3848 204.812 30.2182 148.573 30.2182C112.479 30.2182 81.4213 48.6848 63.7941 77.2242C65.4729 75.5454 67.991 74.706 70.5092 74.706C69.6698 83.9394 76.385 86.4576 82.2607 81.4212C84.7789 76.3848 88.1365 71.3485 93.1729 67.9909C99.0486 64.6333 106.603 63.7939 112.479 63.7939C117.515 63.7939 122.552 65.4727 126.749 67.1515C125.909 63.7939 120.873 59.597 120.033 59.597C132.624 52.8818 153.609 61.2757 156.127 75.5454C156.967 68.8303 156.127 62.1151 156.127 62.1151C168.718 67.1515 169.558 84.7788 168.718 90.6545L185.506 75.5454L169.558 111.639C170.397 112.479 170.397 114.158 171.236 115.836L172.076 116.676C172.915 119.194 173.755 120.873 174.594 123.391C175.433 125.07 176.273 126.748 177.112 129.267C177.112 130.945 176.273 133.464 175.433 136.821C174.594 140.179 173.755 143.536 173.755 145.215C174.594 148.573 174.594 151.93 175.433 155.288C176.273 160.324 177.952 165.361 179.63 168.718C180.47 170.397 180.47 172.076 181.309 172.915C186.346 177.112 186.346 184.667 186.346 188.024C186.346 193.9 177.952 199.776 174.594 202.294C173.755 202.294 173.755 203.133 172.915 203.133C170.397 204.812 167.879 205.651 166.2 206.491C164.521 207.33 162.843 207.33 161.164 207.33C156.127 207.33 143.536 199.776 141.858 197.258C141.018 196.418 140.179 192.221 139.34 188.024C138.5 184.667 137.661 181.309 136.821 178.791C135.143 174.594 133.464 173.755 131.785 172.076C129.267 170.397 126.749 168.718 122.552 162.842C120.873 166.2 116.676 176.273 114.158 189.703C113.318 193.9 113.318 200.615 113.318 209.009C113.318 213.206 113.318 217.403 112.479 221.6C128.427 229.155 145.215 234.191 163.682 234.191C210.688 234.191 250.979 205.651 269.446 165.361C255.176 224.118 203.133 267.767 140.179 267.767C67.1517 268.606 7.55469 208.17 7.55469 134.303C7.55469 60.4364 67.1517 0 140.179 0C144.376 0 148.573 0 152.77 0.839394ZM47.8456 104.085C47.8456 107.442 47.0062 111.639 47.0062 114.997C49.5244 114.158 52.882 114.158 55.4001 114.158H54.5607C52.0426 114.997 49.5244 115.836 47.0062 116.676V117.515C47.0062 127.588 47.8456 136.821 50.3638 146.055C50.3638 145.215 50.3638 144.376 50.3638 142.697C50.3638 141.858 52.0426 133.464 59.5971 122.551C59.5971 123.391 59.5971 125.07 58.7577 125.909C57.9183 130.106 57.0789 134.303 58.7577 139.339C58.7577 135.142 61.2759 122.551 69.6698 118.355C67.1517 122.551 65.4729 135.142 67.9911 138.5C67.9911 131.785 72.188 125.07 78.0638 120.873C82.2607 117.515 103.246 105.764 103.246 105.764C103.246 105.764 99.0486 123.391 108.282 125.07C106.603 120.873 109.121 113.318 113.318 108.282C114.997 106.603 117.515 104.924 119.194 104.085V103.245C118.355 99.0485 118.355 94.0121 120.033 90.6545C121.712 92.3333 125.07 94.0121 128.427 94.8515C131.785 95.6909 135.143 97.3697 138.5 99.0485C141.018 100.727 142.697 104.085 144.376 107.442L146.055 109.961L146.894 111.639V110.8L160.324 97.3697C163.682 91.4939 164.521 76.3848 157.806 69.6697C157.806 73.8667 157.806 92.3333 151.091 95.6909C156.127 83.9394 151.091 62.1151 125.909 62.1151C130.106 65.4727 133.464 71.3485 135.143 74.706C140.179 75.5454 141.018 78.0636 142.697 79.7424L141.858 78.903C139.34 76.3848 131.785 68.8303 114.158 68.8303C108.282 68.8303 102.406 69.6697 97.3698 72.1879C105.764 69.6697 114.997 74.706 122.552 79.7424C121.712 79.7424 120.033 78.903 119.194 78.0636C114.158 76.3848 108.282 73.0273 99.888 74.706C95.691 75.5454 93.1729 78.0636 89.8153 81.4212C88.1365 83.1 86.4577 84.7788 83.9395 86.4576C78.9032 88.9757 72.188 88.9757 69.6698 83.9394C67.9911 83.1 67.1517 81.4212 67.1517 79.7424C65.4729 81.4212 64.6335 83.1 63.7941 84.7788C61.2759 88.1364 60.4365 93.1727 61.2759 97.3697C63.7941 97.3697 66.3123 97.3697 68.8304 97.3697C71.3486 97.3697 73.8668 98.2091 76.385 97.3697C79.7426 96.5303 83.9395 95.6909 86.4577 94.0121C87.2971 93.1727 88.9759 92.3333 89.8153 91.4939C88.9759 92.3333 88.9759 93.1727 88.1365 94.0121C85.6183 97.3697 82.2607 99.0485 78.0638 99.8879C74.7062 100.727 71.3486 100.727 67.9911 99.8879C65.4729 99.8879 62.1153 99.0485 59.5971 99.8879C57.9183 99.8879 56.2395 100.727 54.5607 101.567C52.882 102.406 50.3638 103.245 47.8456 104.085ZM168.718 96.5303L177.112 88.1364L162.003 119.194C160.324 120.033 157.806 119.194 155.288 117.515C153.609 115.836 151.93 114.158 152.77 112.479L156.127 109.121C156.127 109.961 156.967 110.8 157.806 111.639C159.485 113.318 161.164 114.158 163.682 113.318C162.843 113.318 162.003 113.318 162.003 112.479C159.485 111.639 158.646 109.121 157.806 107.442L162.843 102.406C163.682 104.085 165.361 105.764 167.879 104.924C166.2 104.924 164.521 102.406 163.682 100.727L167.04 96.5303C167.879 97.3697 168.718 97.3697 169.558 97.3697C169.558 98.2091 168.718 97.3697 168.718 96.5303ZM141.018 145.215C139.34 143.536 139.34 141.858 139.34 139.339C139.34 137.661 140.179 135.142 141.858 133.464C140.179 131.785 137.661 130.945 135.143 130.945C141.018 129.267 145.215 131.785 149.412 135.982C151.93 138.5 155.288 145.215 156.127 147.733C156.967 150.251 162.003 148.573 162.003 148.573C161.164 150.251 158.646 151.93 156.127 151.93C154.449 151.93 154.449 151.091 153.609 150.251V149.412C151.091 148.573 148.573 147.733 146.055 146.894C143.536 146.894 141.858 146.055 141.018 145.215ZM172.076 186.345C171.236 181.309 170.397 177.951 167.879 177.951C167.879 177.951 168.718 176.273 170.397 177.112C172.915 178.791 172.076 182.988 172.076 186.345ZM173.755 187.185C174.594 182.988 172.915 173.755 168.718 173.755C166.2 173.755 164.521 174.594 163.682 175.433L162.843 176.273C162.843 175.433 162.843 175.433 162.843 174.594C162.843 170.397 161.164 167.039 159.485 162.842C158.646 161.164 158.646 160.324 157.806 158.645C161.164 162.003 163.682 166.2 165.361 170.397C166.2 169.558 167.879 169.558 169.558 171.236C176.273 174.594 176.273 183.827 173.755 187.185ZM164.521 196.418C159.485 194.739 149.412 190.542 149.412 188.024C149.412 186.345 149.412 183.827 151.091 182.988C151.93 185.506 154.449 187.185 157.806 188.864C157.806 188.864 153.609 184.667 153.609 181.309H154.449C156.127 181.309 156.967 183.827 157.806 186.345C158.646 189.703 161.164 193.9 164.521 196.418ZM150.252 151.091C146.894 152.77 141.858 151.93 139.34 150.251C135.982 148.573 134.303 144.376 134.303 141.018C135.143 141.858 135.143 142.697 135.143 143.536C135.982 146.055 137.661 147.733 140.179 149.412C141.858 150.251 145.215 151.091 147.733 151.091C148.573 151.091 149.412 151.091 150.252 151.091ZM79.7426 180.47C79.7426 182.988 79.7426 184.667 79.7426 186.345C77.2244 182.988 76.385 178.791 77.2244 174.594C78.9032 151.93 97.3698 136.821 98.2092 135.982C86.4577 151.93 82.2607 164.521 80.582 172.915C79.7426 174.594 79.7426 177.951 79.7426 180.47Z" fill="url(#paint1_linear)"/>
	<path d="M219.921 132.623C219.921 171.235 198.097 205.65 167.04 222.438C207.33 213.205 236.709 177.111 236.709 134.302C236.709 94.8503 211.527 61.2745 177.112 48.6836C203.133 67.1503 219.921 98.2078 219.921 132.623Z" fill="url(#paint2_linear)"/>
	<path d="M193.9 130.945C193.9 130.945 193.061 123.39 190.542 120.872C188.024 118.354 180.47 117.514 180.47 117.514C180.47 117.514 187.185 116.675 190.542 114.157C193.061 111.639 193.9 104.084 193.9 104.084C193.9 104.084 194.739 111.639 197.258 114.157C199.776 116.675 207.33 117.514 207.33 117.514C207.33 117.514 200.615 118.354 197.258 120.872C193.9 123.39 193.9 130.945 193.9 130.945Z" fill="url(#paint3_linear)"/>
	<path d="M124.231 207.331C126.749 209.849 126.749 214.886 126.749 214.886C126.749 214.886 126.749 209.849 129.267 207.331C131.785 204.813 136.822 204.813 136.822 204.813C136.822 204.813 131.785 204.813 129.267 202.295C126.749 199.777 126.749 194.74 126.749 194.74C126.749 194.74 126.749 199.777 124.231 202.295C121.713 204.813 116.676 204.813 116.676 204.813C116.676 204.813 122.552 204.813 124.231 207.331Z" fill="url(#paint4_linear)"/>
	<path d="M203.133 151.09C203.133 151.09 203.133 147.732 201.454 146.054C199.776 144.375 196.418 144.375 196.418 144.375C196.418 144.375 199.776 144.375 201.454 142.696C203.133 141.017 203.133 137.66 203.133 137.66C203.133 137.66 203.133 141.017 204.812 142.696C206.491 144.375 209.848 144.375 209.848 144.375C209.848 144.375 206.491 144.375 204.812 146.054C203.973 147.732 203.133 151.09 203.133 151.09Z" fill="url(#paint5_linear)"/>
	<defs>
		<linearGradient id="paint0_linear" x1="146.787" y1="136.82" x2="146.787" y2="147.732" gradientUnits="userSpaceOnUse">
			<stop/>
			<stop offset="0.5" stop-color="#1E4169"/>
			<stop offset="1" stop-color="#3A619D"/>
		</linearGradient>
		<linearGradient id="paint1_linear" x1="138.5" y1="0" x2="138.5" y2="267.775" gradientUnits="userSpaceOnUse">
			<stop/>
			<stop offset="0.5" stop-color="#1E4169"/>
			<stop offset="1" stop-color="#3A619D"/>
		</linearGradient>
		<linearGradient id="paint2_linear" x1="201.874" y1="48.6836" x2="201.874" y2="222.438" gradientUnits="userSpaceOnUse">
			<stop/>
			<stop offset="0.5" stop-color="#1E4169"/>
			<stop offset="1" stop-color="#3A619D"/>
		</linearGradient>
		<linearGradient id="paint3_linear" x1="193.9" y1="104.084" x2="193.9" y2="130.945" gradientUnits="userSpaceOnUse">
			<stop/>
			<stop offset="0.5" stop-color="#1E4169"/>
			<stop offset="1" stop-color="#3A619D"/>
		</linearGradient>
		<linearGradient id="paint4_linear" x1="126.749" y1="194.74" x2="126.749" y2="214.886" gradientUnits="userSpaceOnUse">
			<stop/>
			<stop offset="0.5" stop-color="#1E4169"/>
			<stop offset="1" stop-color="#3A619D"/>
		</linearGradient>
		<linearGradient id="paint5_linear" x1="203.133" y1="137.66" x2="203.133" y2="151.09" gradientUnits="userSpaceOnUse">
			<stop/>
			<stop offset="0.5" stop-color="#1E4169"/>
			<stop offset="1" stop-color="#3A619D"/>
		</linearGradient>
	</defs>
</svg>

<svg viewBox="0 0 277 269" fill="none" xmlns="http://www.w3.org/2000/svg"><path d="M151.93 147.732c-1.679-3.357-5.036-7.554-8.394-10.912-.839.84-1.679 3.358-1.679 4.197-.839 3.358.84 3.358 4.197 4.197 1.679 0 3.358.84 5.876 2.518z" fill="url(#a)"/><path fill-rule="evenodd" clip-rule="evenodd" d="M152.77.84C99.888 5.875 57.079 46.166 48.685 98.21c3.358 0 5.876-.84 6.715-.84 0-5.037 1.679-14.27 7.555-20.146 16.788-37.773 53.721-63.794 97.369-63.794 58.758 0 106.603 47.846 106.603 107.443 0 44.488-26.86 82.26-64.633 99.048 28.539-17.627 47.846-50.363 47.846-87.297 0-56.24-45.328-102.406-101.567-102.406-36.094 0-67.152 18.467-84.779 47.006 1.679-1.679 4.197-2.518 6.715-2.518-.84 9.233 5.876 11.752 11.752 6.715 2.518-5.036 5.876-10.073 10.912-13.43 5.876-3.358 13.43-4.197 19.306-4.197 5.036 0 10.073 1.679 14.27 3.358-.84-3.358-5.876-7.555-6.716-7.555 12.591-6.715 33.576 1.679 36.094 15.948.84-6.715 0-13.43 0-13.43 12.591 5.036 13.431 22.664 12.591 28.54l16.788-15.11-15.948 36.094c.839.84.839 2.519 1.678 4.197l.84.84c.839 2.518 1.679 4.197 2.518 6.715.839 1.679 1.679 3.357 2.518 5.876 0 1.678-.839 4.197-1.679 7.554-.839 3.358-1.678 6.715-1.678 8.394.839 3.358.839 6.715 1.678 10.073.84 5.036 2.519 10.073 4.197 13.43.84 1.679.84 3.358 1.679 4.197 5.037 4.197 5.037 11.752 5.037 15.109 0 5.876-8.394 11.752-11.752 14.27-.839 0-.839.839-1.679.839-2.518 1.679-5.036 2.518-6.715 3.358-1.679.839-3.357.839-5.036.839-5.037 0-17.628-7.554-19.306-10.072-.84-.84-1.679-5.037-2.518-9.234-.84-3.357-1.679-6.715-2.519-9.233-1.678-4.197-3.357-5.036-5.036-6.715-2.518-1.679-5.036-3.358-9.233-9.234-1.679 3.358-5.876 13.431-8.394 26.861-.84 4.197-.84 10.912-.84 19.306 0 4.197 0 8.394-.839 12.591 15.948 7.555 32.736 12.591 51.203 12.591 47.006 0 87.297-28.54 105.764-68.83-14.27 58.757-66.313 102.406-129.267 102.406-73.027.839-132.624-59.597-132.624-133.464C7.555 60.436 67.152 0 140.179 0c4.197 0 8.394 0 12.591.84zM47.846 104.084c0 3.357-.84 7.554-.84 10.912 2.518-.839 5.876-.839 8.394-.839h-.84l-7.554 2.518v.839c0 10.073.84 19.306 3.358 28.54v-3.358c0-.839 1.679-9.233 9.233-20.146 0 .84 0 2.519-.84 3.358-.839 4.197-1.678 8.394 0 13.43 0-4.197 2.519-16.788 10.913-20.984-2.518 4.196-4.197 16.787-1.679 20.145 0-6.715 4.197-13.43 10.073-17.627 4.197-3.358 25.182-15.109 25.182-15.109s-4.197 17.627 5.036 19.306c-1.679-4.197.839-11.752 5.036-16.788 1.679-1.679 4.197-3.358 5.876-4.197v-.84c-.839-4.197-.839-9.233.839-12.59 1.679 1.678 5.037 3.357 8.394 4.197 3.358.839 6.716 2.518 10.073 4.197 2.518 1.678 4.197 5.036 5.876 8.393l1.679 2.519.839 1.678v-.839l13.43-13.43c3.358-5.876 4.197-20.985-2.518-27.7 0 4.197 0 22.663-6.715 26.02 5.036-11.75 0-33.575-25.182-33.575 4.197 3.358 7.555 9.233 9.234 12.591 5.036.84 5.875 3.358 7.554 5.036l-.839-.839c-2.518-2.518-10.073-10.073-27.7-10.073-5.876 0-11.752.84-16.788 3.358 8.394-2.518 17.627 2.518 25.182 7.554-.84 0-2.519-.839-3.358-1.678-5.036-1.68-10.912-5.037-19.306-3.358-4.197.84-6.715 3.358-10.073 6.715-1.678 1.679-3.357 3.358-5.876 5.037-5.036 2.518-11.751 2.518-14.27-2.519-1.678-.839-2.517-2.518-2.517-4.197-1.68 1.68-2.519 3.358-3.358 5.037-2.518 3.357-3.357 8.394-2.518 12.59h7.554c2.519 0 5.037.84 7.555 0 3.358-.839 7.554-1.678 10.073-3.357.84-.84 2.518-1.679 3.357-2.518-.84.84-.84 1.679-1.678 2.518-2.519 3.358-5.876 5.037-10.073 5.876a20.47 20.47 0 0 1-10.073 0c-2.518 0-5.876-.84-8.394 0-1.679 0-3.358.839-5.036 1.679-1.679.839-4.197 1.678-6.715 2.518zm120.872-7.555 8.394-8.394-15.109 31.058c-1.679.839-4.197 0-6.715-1.679-1.679-1.679-3.358-3.357-2.518-5.036l3.357-3.358c0 .84.84 1.679 1.679 2.518 1.679 1.679 3.358 2.519 5.876 1.679-.839 0-1.679 0-1.679-.839-2.518-.84-3.357-3.358-4.197-5.037l5.037-5.036c.839 1.679 2.518 3.358 5.036 2.518-1.679 0-3.358-2.518-4.197-4.197l3.358-4.197c.839.84 1.678.84 2.518.84 0 .84-.84 0-.84-.84zm-27.7 48.685c-1.678-1.679-1.678-3.357-1.678-5.876 0-1.678.839-4.197 2.518-5.875-1.679-1.679-4.197-2.519-6.715-2.519 5.875-1.678 10.072.84 14.269 5.037 2.518 2.518 5.876 9.233 6.715 11.751.84 2.518 5.876.84 5.876.84-.839 1.678-3.357 3.357-5.876 3.357-1.678 0-1.678-.839-2.518-1.679v-.839l-7.554-2.518c-2.519 0-4.197-.839-5.037-1.679zm31.058 41.13c-.84-5.036-1.679-8.394-4.197-8.394 0 0 .839-1.678 2.518-.839 2.518 1.679 1.679 5.876 1.679 9.233zm1.679.84c.839-4.197-.84-13.43-5.037-13.43-2.518 0-4.197.839-5.036 1.678l-.839.84v-1.679c0-4.197-1.679-7.555-3.358-11.752-.839-1.678-.839-2.518-1.679-4.197 3.358 3.358 5.876 7.555 7.555 11.752.839-.839 2.518-.839 4.197.839 6.715 3.358 6.715 12.591 4.197 15.949zm-9.234 9.233c-5.036-1.679-15.109-5.876-15.109-8.394 0-1.679 0-4.197 1.679-5.036.839 2.518 3.358 4.197 6.715 5.876 0 0-4.197-4.197-4.197-7.555h.84c1.678 0 2.518 2.518 3.357 5.036.84 3.358 3.358 7.555 6.715 10.073zm-14.269-45.327c-3.358 1.679-8.394.839-10.912-.84-3.358-1.678-5.037-5.875-5.037-9.233.84.84.84 1.679.84 2.518.839 2.519 2.518 4.197 5.036 5.876 1.679.839 5.036 1.679 7.554 1.679h2.519zm-70.51 29.379v5.875c-2.518-3.357-3.357-7.554-2.518-11.751 1.68-22.664 20.146-37.773 20.985-38.612-11.751 15.948-15.948 28.539-17.627 36.933-.84 1.679-.84 5.036-.84 7.555z" fill="url(#b)"/><path d="M219.921 132.623c0 38.612-21.824 73.027-52.881 89.815 40.29-9.233 69.669-45.327 69.669-88.136 0-39.452-25.182-73.027-59.597-85.618 26.021 18.466 42.809 49.524 42.809 83.939z" fill="url(#c)"/><path d="M193.9 130.945s-.839-7.555-3.358-10.073c-2.518-2.518-10.072-3.358-10.072-3.358s6.715-.839 10.072-3.357c2.519-2.518 3.358-10.073 3.358-10.073s.839 7.555 3.358 10.073c2.518 2.518 10.072 3.357 10.072 3.357s-6.715.84-10.072 3.358c-3.358 2.518-3.358 10.073-3.358 10.073z" fill="url(#d)"/><path d="M124.231 207.331c2.518 2.518 2.518 7.555 2.518 7.555s0-5.037 2.518-7.555 7.555-2.518 7.555-2.518-5.037 0-7.555-2.518-2.518-7.555-2.518-7.555 0 5.037-2.518 7.555-7.555 2.518-7.555 2.518 5.876 0 7.555 2.518z" fill="url(#e)"/><path d="M203.133 151.09s0-3.358-1.679-5.036c-1.678-1.679-5.036-1.679-5.036-1.679s3.358 0 5.036-1.679c1.679-1.679 1.679-5.036 1.679-5.036s0 3.357 1.679 5.036c1.679 1.679 5.036 1.679 5.036 1.679s-3.357 0-5.036 1.679c-.839 1.678-1.679 5.036-1.679 5.036z" fill="url(#f)"/><defs><linearGradient id="a" x1="146.787" y1="136.82" x2="146.787" y2="147.732" gradientUnits="userSpaceOnUse"><stop/><stop offset=".5" stop-color="#1E4169"/><stop offset="1" stop-color="#3A619D"/></linearGradient><linearGradient id="b" x1="138.5" y1="0" x2="138.5" y2="267.775" gradientUnits="userSpaceOnUse"><stop/><stop offset=".5" stop-color="#1E4169"/><stop offset="1" stop-color="#3A619D"/></linearGradient><linearGradient id="c" x1="201.874" y1="48.684" x2="201.874" y2="222.438" gradientUnits="userSpaceOnUse"><stop/><stop offset=".5" stop-color="#1E4169"/><stop offset="1" stop-color="#3A619D"/></linearGradient><linearGradient id="d" x1="193.9" y1="104.084" x2="193.9" y2="130.945" gradientUnits="userSpaceOnUse"><stop/><stop offset=".5" stop-color="#1E4169"/><stop offset="1" stop-color="#3A619D"/></linearGradient><linearGradient id="e" x1="126.749" y1="194.74" x2="126.749" y2="214.886" gradientUnits="userSpaceOnUse"><stop/><stop offset=".5" stop-color="#1E4169"/><stop offset="1" stop-color="#3A619D"/></linearGradient><linearGradient id="f" x1="203.133" y1="137.66" x2="203.133" y2="151.09" gradientUnits="userSpaceOnUse"><stop/><stop offset=".5" stop-color="#1E4169"/><stop offset="1" stop-color="#3A619D"/></linearGradient></defs></svg>
